contents/images/logos/posthog-logo-800x155.svg

<svg xmlns="http://www.w3.org/2000/svg" width="800" height="156" fill="none" viewBox="0 0 800 156"><path fill="#F9BD2B" d="M0 97.3787L39.0038 136.33H0V97.3787ZM0 87.6408L48.7548 136.33H87.7586L0 48.6893V87.6408ZM0 38.9515L97.5096 136.33H136.513L0 0V38.9515ZM48.7548 38.9515L146.264 136.33V97.3787L48.7548 0V38.9515ZM97.5096 0V38.9515L146.264 87.6408V48.6893L97.5096 0Z"/><path fill="#000" d="M234.023 120.75C224.03 120.75 214.451 116.784 207.391 109.734L153.16 55.576V136.33H234.023V120.75Z"/><path fill="#fff" d="M176.563 120.75C180.871 120.75 184.363 117.262 184.363 112.959C184.363 108.657 180.871 105.169 176.563 105.169C172.254 105.169 168.762 108.657 168.762 112.959C168.762 117.262 172.254 120.75 176.563 120.75Z"/><path fill="#1D4AFF" d="M0 136.33H39.0038L0 97.3787V136.33Z"/><path fill="#1D4AFF" d="M48.7548 48.6893L0 0V38.9515L48.7548 87.6408V48.6893Z"/><path fill="#1D4AFF" d="M0 48.6894V87.6408L48.7548 136.33V97.3787L0 48.6894Z"/><path fill="#F54E00" d="M97.5096 48.6893L48.7548 0V38.9515L97.5096 87.6408V48.6893Z"/><path fill="#F54E00" d="M48.7548 136.33H87.7586L48.7548 97.3787V136.33Z"/><path fill="#F54E00" d="M48.7548 48.6894V87.6408L97.5096 136.33V97.3787L48.7548 48.6894Z"/><path fill="#000" d="M391.942 82.4058C391.942 99.856 384.125 111.565 357.735 111.565H343.195V136.33H327.312V53.3635H357.735C384.125 53.3713 391.942 64.9555 391.942 82.4058ZM376.059 82.4058C376.059 72.2784 372.884 68.0093 360.544 68.0093H343.195V96.9269H360.544C372.884 96.9269 376.059 92.167 376.059 82.4058Z"/><path fill="#000" d="M399.883 104.857C399.883 85.701 410.508 72.2783 430.306 72.2783C450.097 72.2783 460.729 85.701 460.729 104.857C460.729 124.014 450.097 137.553 430.306 137.553C410.515 137.553 399.883 124.006 399.883 104.857ZM444.847 104.857C444.847 91.4347 441.063 86.9241 430.306 86.9241C419.556 86.9241 415.765 91.4347 415.765 104.857C415.765 118.28 419.549 122.915 430.306 122.915C441.055 122.907 444.847 118.272 444.847 104.857Z"/><path fill="#000" d="M471.112 113.762C482.228 120.718 490.419 122.915 499.46 122.915C505.326 122.915 507.767 120.594 507.767 117.548C507.767 114.011 505.568 112.305 495.793 110.716C476.611 107.787 471.112 100.222 471.112 90.5855C471.112 78.0198 481.619 72.2861 494.693 72.2861C502.876 72.2861 512.776 74.483 518.759 78.6274V93.2654C509.842 88.8717 500.193 86.9241 493.469 86.9241C489.069 86.9241 486.994 88.5133 486.994 91.3178C486.994 94.3716 488.585 96.0777 498.36 98.1499C516.684 101.928 523.65 105.839 523.65 117.914C523.65 130.355 512.534 137.553 498.235 137.553C488.702 137.553 480.028 135.723 471.112 129.747V113.762V113.762Z"/><path fill="#000" d="M555.407 88.1394V121.692H572.14V136.33H539.524V88.1394H529.75V73.5015H539.524V50.933H555.407V73.5015H572.14V88.1394H555.407Z"/><path fill="#000" d="M656.317 53.3713V136.338H640.435V103.393H603.904V136.338H588.022V53.3713H603.904V88.7548H640.435V53.3713H656.317V53.3713Z"/><path fill="#000" d="M668.541 104.857C668.541 85.701 679.166 72.2783 698.964 72.2783C718.755 72.2783 729.387 85.701 729.387 104.857C729.387 124.014 718.755 137.553 698.964 137.553C679.174 137.553 668.541 124.006 668.541 104.857ZM713.497 104.857C713.497 91.4347 709.714 86.9241 698.957 86.9241C688.207 86.9241 684.416 91.4347 684.416 104.857C684.416 118.28 688.199 122.915 698.957 122.915C709.714 122.907 713.497 118.272 713.497 104.857Z"/><path fill="#000" d="M800 73.5014V155.853H749.911V141.215H784.118V124.131C780.451 128.158 775.076 131.453 766.277 131.453C747.953 131.453 739.154 117.665 739.154 101.804C739.154 86.0671 747.953 72.2783 766.277 72.2783C775.076 72.2783 780.451 75.5736 784.118 80.2088V73.5014H800V73.5014ZM784.118 101.804C784.118 92.4084 780.334 86.9163 769.577 86.9163C758.827 86.9163 755.036 92.4084 755.036 101.804C755.036 111.323 758.827 116.808 769.577 116.808C780.326 116.808 784.118 111.931 784.118 101.804Z"/></svg>

<svg fill="none" viewBox="0 0 800 156"><path fill="#F9BD2B" d="M0 97.379l39.004 38.951H0V97.379zm0-9.738l48.755 48.689h39.004L0 48.69v38.95zm0-48.69l97.51 97.379h39.003L0 0v38.952zm48.755 0l97.509 97.379V97.379L48.754 0v38.952zM97.51 0v38.952l48.754 48.689V48.689L97.51 0z"/><path fill="#000" d="M234.023 120.75a37.692 37.692 0 01-26.632-11.016L153.16 55.576v80.754h80.863v-15.58z"/><path fill="#fff" d="M176.563 120.75c4.308 0 7.8-3.488 7.8-7.791 0-4.302-3.492-7.79-7.8-7.79-4.309 0-7.801 3.488-7.801 7.79 0 4.303 3.492 7.791 7.801 7.791z"/><path fill="#1D4AFF" d="M0 136.33h39.004L0 97.379v38.951zm48.755-87.64L0 0v38.952L48.755 87.64V48.689zM0 48.69v38.95l48.755 48.69V97.379L0 48.689z"/><path fill="#F54E00" d="M97.51 48.69L48.755 0v38.952L97.51 87.64V48.689zm-48.755 87.64h39.004L48.755 97.379v38.951zm0-87.64v38.95l48.755 48.69V97.379l-48.755-48.69z"/><path fill="#000" d="M391.942 82.406c0 17.45-7.817 29.159-34.207 29.159h-14.54v24.765h-15.883V53.363h30.423c26.39.008 34.207 11.593 34.207 29.043zm-15.883 0c0-10.128-3.175-14.397-15.515-14.397h-17.349v28.918h17.349c12.34 0 15.515-4.76 15.515-14.521zm23.824 22.451c0-19.156 10.625-32.579 30.423-32.579 19.791 0 30.423 13.423 30.423 32.579 0 19.157-10.632 32.696-30.423 32.696-19.791 0-30.423-13.547-30.423-32.696zm44.964 0c0-13.422-3.784-17.933-14.541-17.933-10.75 0-14.541 4.51-14.541 17.933s3.784 18.058 14.541 18.058c10.749-.008 14.541-4.643 14.541-18.058zm26.265 8.905c11.116 6.956 19.307 9.153 28.348 9.153 5.866 0 8.307-2.321 8.307-5.367 0-3.537-2.199-5.243-11.974-6.832-19.182-2.929-24.681-10.494-24.681-20.13 0-12.566 10.507-18.3 23.581-18.3 8.183 0 18.083 2.197 24.066 6.341v14.638c-8.917-4.393-18.566-6.34-25.29-6.34-4.4 0-6.475 1.588-6.475 4.393 0 3.054 1.591 4.76 11.366 6.832 18.324 3.778 25.29 7.689 25.29 19.764 0 12.441-11.116 19.639-25.415 19.639-9.533 0-18.207-1.83-27.123-7.806v-15.985zm84.295-25.623v33.553h16.733v14.638h-32.616V88.14h-9.774V73.5h9.774V50.933h15.883v22.568h16.733V88.14h-16.733zm100.91-34.768v82.967h-15.882v-32.945h-36.531v32.945h-15.882V53.371h15.882v35.384h36.531V53.37h15.882zm12.224 51.486c0-19.156 10.625-32.579 30.423-32.579 19.791 0 30.423 13.423 30.423 32.579 0 19.157-10.632 32.696-30.423 32.696-19.79 0-30.423-13.547-30.423-32.696zm44.956 0c0-13.422-3.783-17.933-14.54-17.933-10.75 0-14.541 4.51-14.541 17.933s3.783 18.058 14.541 18.058c10.757-.008 14.54-4.643 14.54-18.058zM800 73.501v82.352h-50.089v-14.638h34.207v-17.084c-3.667 4.027-9.042 7.322-17.841 7.322-18.324 0-27.123-13.788-27.123-29.649 0-15.737 8.799-29.526 27.123-29.526 8.799 0 14.174 3.296 17.841 7.93v-6.707H800zm-15.882 28.303c0-9.396-3.784-14.888-14.541-14.888-10.75 0-14.541 5.492-14.541 14.888 0 9.519 3.791 15.004 14.541 15.004 10.749 0 14.541-4.877 14.541-15.004z"/></svg>
